img/user.svg

<svg width="25" height="27" viewBox="0 0 25 27" fill="none" xmlns="http://www.w3.org/2000/svg">
<path d="M2.77778 27H0V25.5789C0.00612311 20.0878 4.35533 15.6378 9.72222 15.6316H15.2778C20.6447 15.6378 24.9939 20.0878 25 25.5789V27H22.2222V25.5789C22.2176 21.6568 19.1112 18.4784 15.2778 18.4737H9.72222C5.88881 18.4784 2.78237 21.6568 2.77778 25.5789V27ZM12.5 14.2105C8.66469 14.2105 5.55556 11.0294 5.55556 7.10526C5.55556 3.18113 8.66469 0 12.5 0C16.3353 0 19.4444 3.18113 19.4444 7.10526C19.4399 11.0274 16.3334 14.2058 12.5 14.2105ZM12.5 2.84211C10.1988 2.84211 8.33333 4.75079 8.33333 7.10526C8.33333 9.45974 10.1988 11.3684 12.5 11.3684C14.8012 11.3684 16.6667 9.45974 16.6667 7.10526C16.6667 4.75079 14.8012 2.84211 12.5 2.84211Z" fill="white"/>
</svg>

<svg width="25" height="27" fill="none" xmlns="http://www.w3.org/2000/svg"><path d="M2.778 27H0v-1.421c.006-5.491 4.355-9.941 9.722-9.947h5.556c5.367.006 9.716 4.456 9.722 9.947V27h-2.778v-1.421c-.004-3.922-3.11-7.1-6.944-7.105H9.722c-3.833.004-6.94 3.183-6.944 7.105V27ZM12.5 14.21c-3.835 0-6.944-3.18-6.944-7.105C5.556 3.181 8.665 0 12.5 0s6.944 3.181 6.944 7.105c-.004 3.922-3.11 7.1-6.944 7.105Zm0-11.368c-2.301 0-4.167 1.909-4.167 4.263 0 2.355 1.866 4.263 4.167 4.263 2.301 0 4.167-1.908 4.167-4.263 0-2.354-1.866-4.263-4.167-4.263Z" fill="#fff"/></svg>
